assets/icons/otp.svg

<svg width="15" height="15" viewBox="0 0 15 15" fill="none" xmlns="http://www.w3.org/2000/svg">
<g clip-path="url(#clip0_1404_14762)">
<path d="M3.5 6C3.36739 6 3.24021 6.05268 3.14645 6.14645C3.05268 6.24021 3 6.36739 3 6.5V8.5C3 8.63261 3.05268 8.75979 3.14645 8.85355C3.24021 8.94732 3.36739 9 3.5 9C3.63261 9 3.75979 8.94732 3.85355 8.85355C3.94732 8.75979 4 8.63261 4 8.5V6.5C4 6.36739 3.94732 6.24021 3.85355 6.14645C3.75979 6.05268 3.63261 6 3.5 6ZM11 7H11.5C11.6326 7 11.7598 6.94732 11.8536 6.85355C11.9473 6.75979 12 6.63261 12 6.5C12 6.36739 11.9473 6.24021 11.8536 6.14645C11.7598 6.05268 11.6326 6 11.5 6H11V7Z" fill="#7F7F7F"/>
<path fill-rule="evenodd" clip-rule="evenodd" d="M0 1.5C0 1.10218 0.158035 0.720644 0.43934 0.43934C0.720644 0.158035 1.10218 0 1.5 0L13.5 0C13.8978 0 14.2794 0.158035 14.5607 0.43934C14.842 0.720644 15 1.10218 15 1.5V13.5C15 13.8978 14.842 14.2794 14.5607 14.5607C14.2794 14.842 13.8978 15 13.5 15H1.5C1.10218 15 0.720644 14.842 0.43934 14.5607C0.158035 14.2794 0 13.8978 0 13.5L0 1.5ZM2 6.5C2 6.30302 2.0388 6.10796 2.11418 5.92597C2.18956 5.74399 2.30005 5.57863 2.43934 5.43934C2.57863 5.30005 2.74399 5.18956 2.92597 5.11418C3.10796 5.0388 3.30302 5 3.5 5C3.69698 5 3.89204 5.0388 4.07403 5.11418C4.25601 5.18956 4.42137 5.30005 4.56066 5.43934C4.69995 5.57863 4.81044 5.74399 4.88582 5.92597C4.9612 6.10796 5 6.30302 5 6.5V8.5C5 8.69698 4.9612 8.89204 4.88582 9.07403C4.81044 9.25601 4.69995 9.42137 4.56066 9.56066C4.42137 9.69995 4.25601 9.81044 4.07403 9.88582C3.89204 9.9612 3.69698 10 3.5 10C3.30302 10 3.10796 9.9612 2.92597 9.88582C2.74399 9.81044 2.57863 9.69995 2.43934 9.56066C2.30005 9.42137 2.18956 9.25601 2.11418 9.07403C2.0388 8.89204 2 8.69698 2 8.5V6.5ZM7 6H6V5H9V6H8V10H7V6ZM10 5H11.5C11.8978 5 12.2794 5.15804 12.5607 5.43934C12.842 5.72064 13 6.10218 13 6.5C13 6.89782 12.842 7.27936 12.5607 7.56066C12.2794 7.84196 11.8978 8 11.5 8H11V10H10V5Z" fill="#7F7F7F"/>
</g>
<defs>
<clipPath id="clip0_1404_14762">
<rect width="15" height="15" fill="white"/>
</clipPath>
</defs>
</svg>

<svg xmlns="http://www.w3.org/2000/svg" width="15" height="15" fill="none" viewBox="0 0 15 15"><g fill="#7f7f7f" clip-path="url(#a)"><path d="M3.5 6a.5.5 0 0 0-.5.5v2a.5.5 0 1 0 1 0v-2a.5.5 0 0 0-.5-.5M11 7h.5a.5.5 0 0 0 0-1H11z"/><path fill-rule="evenodd" d="M0 1.5A1.5 1.5 0 0 1 1.5 0h12A1.5 1.5 0 0 1 15 1.5v12a1.5 1.5 0 0 1-1.5 1.5h-12A1.5 1.5 0 0 1 0 13.5zm2 5a1.5 1.5 0 0 1 3 0v2a1.5 1.5 0 0 1-3 0zM7 6H6V5h3v1H8v4H7zm3-1h1.5a1.5 1.5 0 0 1 0 3H11v2h-1z" clip-rule="evenodd"/></g><defs><clipPath id="a"><path fill="#fff" d="M0 0h15v15H0z"/></clipPath></defs></svg>
